X:142
T:Uncle Bernard's Polka
M:4/4
L:1/8
K:D
D2 E2 F2 G2 | A2 AB AG F2 | G2 GA GF E2 | F2 FG F2 E2 |
D2 E2 F2 G2 | A2 AB A2 d2 | cBAG F2 E2 |1 D2 z2 E4 :|2 D2 z2 A4 ||
d2 d2 c2 B2 | A2 AB AG F2 | G2 GA GF E2 | F2 FG F2 A2 |
d2 d2 c2 B2 | A2 AB A2 d2 | cBAG F2 E2 |1 D2 z2 A4 :|2 D2 z2 E4 ||
